src/assets/duotone/FavoriteChart.svg

<svg width="24" height="24" viewBox="0 0 24 24"  xmlns="http://www.w3.org/2000/svg">
<path opacity="0.4" d="M22 7.81V15.16C21.71 15.02 21.39 14.92 21.03 14.86L20.72 14.81L20.46 14.27C19.91 13.15 19.01 12.5 18 12.5C16.99 12.5 16.09 13.15 15.54 14.27L15.27 14.81L14.97 14.86C13.78 15.06 12.92 15.72 12.61 16.66C12.31 17.61 12.62 18.65 13.47 19.51L13.78 19.82L13.75 19.94C13.55 20.83 13.63 21.51 13.82 22H7.81C4.17 22 2 19.83 2 16.19V7.81C2 4.17 4.17 2 7.81 2H16.19C19.83 2 22 4.17 22 7.81Z" />
<path d="M19.1199 14.9404L19.4399 15.5904C19.5999 15.9104 20.0099 16.2104 20.3499 16.2704L20.7799 16.3404C22.0899 16.5604 22.3899 17.5204 21.4599 18.4604L21.0599 18.8604C20.7899 19.1304 20.6499 19.6504 20.7299 20.0304L20.7799 20.2704C21.1399 21.8504 20.2999 22.4604 18.9299 21.6304L18.6399 21.4504C18.2899 21.2404 17.7099 21.2404 17.3599 21.4504L17.0699 21.6304C15.6899 22.4604 14.8599 21.8504 15.2199 20.2704L15.2699 20.0304C15.3499 19.6604 15.2099 19.1304 14.9399 18.8604L14.5399 18.4604C13.6099 17.5104 13.9099 16.5604 15.2199 16.3404L15.6499 16.2704C15.9999 16.2104 16.3999 15.9104 16.5599 15.5904L16.8799 14.9404C17.4999 13.6904 18.4999 13.6904 19.1199 14.9404Z" />
<path fill-rule="evenodd" clip-rule="evenodd" d="M16.1296 7.91704C16.457 8.17081 16.5167 8.64192 16.2629 8.9693L13.9485 11.955C13.3536 12.7073 12.2567 12.8445 11.4916 12.2533L11.4863 12.2492L9.65976 10.8119C9.54691 10.7262 9.38952 10.7475 9.30382 10.8581C9.30374 10.8582 9.3039 10.858 9.30382 10.8581L6.9243 13.9475C6.67154 14.2756 6.20062 14.3367 5.87246 14.084C5.5443 13.8312 5.48318 13.3603 5.73593 13.0321L8.11666 9.94122C8.71057 9.17263 9.81178 9.03371 10.5787 9.62634L10.5839 9.63038L12.4105 11.0677C12.5245 11.1543 12.6852 11.132 12.7703 11.0265L15.0774 8.05031C15.3312 7.72293 15.8023 7.66327 16.1296 7.91704Z" />
</svg>

<?xml version="1.0" encoding="UTF-8"?>
<svg width="24" height="24" viewBox="0 0 24 24" xmlns="http://www.w3.org/2000/svg">
 <path d="m22 7.81v7.35c-0.29-0.14-0.61-0.24-0.97-0.3l-0.31-0.05-0.26-0.54c-0.55-1.12-1.45-1.77-2.46-1.77s-1.91 0.65-2.46 1.77l-0.27 0.54-0.3 0.05c-1.19 0.2-2.05 0.86-2.36 1.8-0.3 0.95 0.01 1.99 0.86 2.85l0.31 0.31-0.03 0.12c-0.2 0.89-0.12 1.57 0.07 2.06h-6.01c-3.64 0-5.81-2.17-5.81-5.81v-8.38c0-3.64 2.17-5.81 5.81-5.81h8.38c3.64 0 5.81 2.17 5.81 5.81z" opacity=".4"/>
 <path d="m19.12 14.94 0.32 0.65c0.16 0.32 0.57 0.62 0.91 0.68l0.43 0.07c1.31 0.22 1.61 1.18 0.68 2.12l-0.4 0.4c-0.27 0.27-0.41 0.79-0.33 1.17l0.05 0.24c0.36 1.58-0.48 2.19-1.85 1.36l-0.29-0.18c-0.35-0.21-0.93-0.21-1.28 0l-0.29 0.18c-1.38 0.83-2.21 0.22-1.85-1.36l0.05-0.24c0.08-0.37-0.06-0.9-0.33-1.17l-0.4-0.4c-0.93-0.95-0.63-1.9 0.68-2.12l0.43-0.07c0.35-0.06 0.75-0.36 0.91-0.68l0.32-0.65c0.62-1.25 1.62-1.25 2.24 0z"/>
 <path d="m16.13 7.917c0.3274 0.25377 0.3871 0.72488 0.1333 1.0523l-2.3144 2.9857c-0.5949 0.7523-1.6918 0.8895-2.4569 0.2983l-0.0053-0.0041-1.8265-1.4373c-0.11285-0.0857-0.27024-0.0644-0.35594 0.0462-8e-5 1e-4 8e-5 -1e-4 0 0l-2.3795 3.0894c-0.25276 0.3281-0.72368 0.3892-1.0518 0.1365-0.32816-0.2528-0.38928-0.7237-0.13653-1.0519l2.3807-3.0909c0.59391-0.76859 1.6951-0.90751 2.462-0.31488l0.0052 0.00404 1.8266 1.4373c0.114 0.0866 0.2747 0.0643 0.3598-0.0412l2.3071-2.9762c0.2538-0.32738 0.7249-0.38704 1.0522-0.13327z" clip-rule="evenodd" fill-rule="evenodd"/>
</svg>
